X:162
T:162  Jack upon the Green (JW)
M:9/8
L:1/8
S:J.Winder MS,Wyresdale,Lancs.,1789
A:Lancashire
S:Entered upside down in MS in a different hand, said to be William Roberts'?
K:D
A|d2dd2cB2B| e2e ed2 c2A|d2d d2c B2c| d2B A2G F2:|
|:F|D2D F2E F2A|  D2D E2E F2E|D2D E2E F2A |d2A F2E D2:|





%vocalfont Times-Roman 13.0
